X: 524
T: Gramachree Molly
M:C
L:1/8
Q:90
B:O'Neill's 524
N:"Slow with expression"
Z:Transcribed by Dave Wooldridge
K:G
G | (d>e)(dB) (ef)(ge) | (dB) G2 z d | (g>f)ga gfed | ed(gB) d2 z d |
(g>f) (gb/2a/2) gfed | ">"e ">"d ">"c ">"B He2 z f | (g>f)e(d e>~f)Hge | (dB) G2z ||
